src/plp/components/img/grid.svg

<svg height="18" viewBox="0 0 18 18" width="18" xmlns="http://www.w3.org/2000/svg"><path d="m7.20634921 0h-6.57142858c-.35073015 0-.63492063.28419048-.63492063.63492063v6.57142858c0 .35073016.28419048.63492063.63492063.63492063h6.57142858c.35073016 0 .63492063-.28419047.63492063-.63492063v-6.57142858c0-.35073015-.28419047-.63492063-.63492063-.63492063zm-.63492064 6.57142857h-5.3015873v-5.3015873h5.3015873zm10.79365083-6.57142857h-6.5714286c-.3507302 0-.6349206.28419048-.6349206.63492063v6.57142858c0 .35073016.2841904.63492063.6349206.63492063h6.5714286c.3507301 0 .6349206-.28419047.6349206-.63492063v-6.57142858c0-.35073015-.2841905-.63492063-.6349206-.63492063zm-.6349207 6.57142857h-5.3015873v-5.3015873h5.3015873zm-9.52380949 3.58730163h-6.57142858c-.35073015 0-.63492063.2841904-.63492063.6349206v6.5714286c0 .3507301.28419048.6349206.63492063.6349206h6.57142858c.35073016 0 .63492063-.2841905.63492063-.6349206v-6.5714286c0-.3507302-.28419047-.6349206-.63492063-.6349206zm-.63492064 6.5714285h-5.3015873v-5.3015873h5.3015873zm10.79365083-6.5714285h-6.5714286c-.3507302 0-.6349206.2841904-.6349206.6349206v6.5714286c0 .3507301.2841904.6349206.6349206.6349206h6.5714286c.3507301 0 .6349206-.2841905.6349206-.6349206v-6.5714286c0-.3507302-.2841905-.6349206-.6349206-.6349206zm-.6349207 6.5714285h-5.3015873v-5.3015873h5.3015873z" fill="#8d8d8d"/></svg>

<?xml version="1.0" encoding="UTF-8"?>
<svg width="18px" height="18px" viewBox="0 0 18 18" version="1.1" xmlns="http://www.w3.org/2000/svg" xmlns:xlink="http://www.w3.org/1999/xlink">
    <!-- Generator: Sketch 48.2 (47327) - http://www.bohemiancoding.com/sketch -->
    <title>Shape</title>
    <desc>Created with Sketch.</desc>
    <defs></defs>
    <g id="02_Mobile_PLP_List_View_Screen" stroke="none" stroke-width="1" fill="none" fill-rule="evenodd" transform="translate(-326.000000, -94.000000)">
        <g id="Grid/List-View" transform="translate(323.000000, 94.000000)" fill="#8D8D8D" fill-rule="nonzero">
            <g id="noun_1123237" transform="translate(3.000000, 0.000000)">
                <path d="M7.20634921,0 L0.634920635,0 C0.284190476,0 0,0.284190476 0,0.634920635 L0,7.20634921 C0,7.55707937 0.284190476,7.84126984 0.634920635,7.84126984 L7.20634921,7.84126984 C7.55707937,7.84126984 7.84126984,7.55707937 7.84126984,7.20634921 L7.84126984,0.634920635 C7.84126984,0.284190476 7.55707937,0 7.20634921,0 Z M6.57142857,6.57142857 L1.26984127,6.57142857 L1.26984127,1.26984127 L6.57142857,1.26984127 L6.57142857,6.57142857 Z M17.3650794,0 L10.7936508,0 C10.4429206,0 10.1587302,0.284190476 10.1587302,0.634920635 L10.1587302,7.20634921 C10.1587302,7.55707937 10.4429206,7.84126984 10.7936508,7.84126984 L17.3650794,7.84126984 C17.7158095,7.84126984 18,7.55707937 18,7.20634921 L18,0.634920635 C18,0.284190476 17.7158095,0 17.3650794,0 Z M16.7301587,6.57142857 L11.4285714,6.57142857 L11.4285714,1.26984127 L16.7301587,1.26984127 L16.7301587,6.57142857 Z M7.20634921,10.1587302 L0.634920635,10.1587302 C0.284190476,10.1587302 0,10.4429206 0,10.7936508 L0,17.3650794 C0,17.7158095 0.284190476,18 0.634920635,18 L7.20634921,18 C7.55707937,18 7.84126984,17.7158095 7.84126984,17.3650794 L7.84126984,10.7936508 C7.84126984,10.4429206 7.55707937,10.1587302 7.20634921,10.1587302 Z M6.57142857,16.7301587 L1.26984127,16.7301587 L1.26984127,11.4285714 L6.57142857,11.4285714 L6.57142857,16.7301587 Z M17.3650794,10.1587302 L10.7936508,10.1587302 C10.4429206,10.1587302 10.1587302,10.4429206 10.1587302,10.7936508 L10.1587302,17.3650794 C10.1587302,17.7158095 10.4429206,18 10.7936508,18 L17.3650794,18 C17.7158095,18 18,17.7158095 18,17.3650794 L18,10.7936508 C18,10.4429206 17.7158095,10.1587302 17.3650794,10.1587302 Z M16.7301587,16.7301587 L11.4285714,16.7301587 L11.4285714,11.4285714 L16.7301587,11.4285714 L16.7301587,16.7301587 Z" id="Shape"></path>
            </g>
        </g>
    </g>
</svg>
